!!!!SEGMENT: pl-sa--552-a-ix-32--017_anonim--polonaise.krn
!!!cenid: 18xx:528
!!!COM: Anonim
!!!COM-rismID: pe30004985
!!!CDT:
!!!CNT:
!!!OTL: Polonaise
!!!PDT:
!!!AGN: Secular; Polonaise
!!!SMS-siglum: PL-SA
!!!SMS-shelfmark: 552/A IX 32
!!!SMS-shelfwork: 017 W
!!!SMS-variant:
!!!SMS-altvar:
!!!NIFC-rismSourceID: 1001069530
!!!NIFC-rismChildID: 1001069530
!!!NIFC-islandoraID:
!!!URL-pdf-islandora:
!!!URL-scan: https://bc.bdsandomierz.pl/dlibra/publication/1308/edition/1276/content @EN{Scan in the Sandomierz Diocese Digital Library} @PL{Skany w portalu Cyfrowa Biblioteka Diecezjalna w Sandomierzu}
!!!ONB-nifc: Str. 9, s. 3-5
!!!AIN: 1 empty
!!!key:
**kern	**fing	**kern	**fing
*part1	*	*part1	*
*staff2	*	*staff1	*
*Iempty	*	*Iempty	*
*I"	*	*I"	*
*I'keyb	*	*I'keyb	*
*clefF4	*	*clefG2	*
*k[b-]	*	*k[b-]	*
*F:	*	*F:	*
*M3/4	*	*M3/4	*
=1	=1	=1	=1
*clefG2	*	*	*
*tremolo	*	*	*
!	!	!LO:TX:a:t=P:problem=tytuł przed akoladą na wysokości górnej pięciolinii	!
!	!	!LO:TX:a:i:t=Polonaise	!
!LO:TX:a:t=P:problem=główki nut w taktach 1-4 zaczernione	!	!LO:TX:a:t=P:problem=metrum z kreską ułamkową; pomędzy pięcioliniami	!
8a/L 8f	2 1	4.ff\	1
8c/	.	.	.
8a/ 8f	.	.	.
8c/	.	8ff\	.
8a/ 8f	.	8aa\L	2
8c/J	5	8ccc\J	4
=2	=2	=2	=2
8g/L 8e	1 3	16bbn\LL	3
.	.	16ccc\	.
8c/	.	16ddd\	.
.	.	16ccc\JJ	.
8g/ 8e	.	4.gg\	2
8c/	.	.	.
8g/ 8e	.	.	.
8c/J	5	16ee\LL	1
.	.	16cc\JJ	2
=3	=3	=3	=3
8a/L 8f	.	8ff\	1
8c/	.	4ff\	1
8a/ 8f	.	.	.
8c/	.	8ff\	1
8a/ 8f	.	8aa\L	3
8c/J	.	8ccc\J	5
=4	=4	=4	=4
8g/L 8e	.	4.cc\	1
8c/	.	.	.
8g/ 8e	.	.	.
8c/	.	16cc\LL	.
.	.	16dd\JJ	.
8g/ 8e	.	16ee\LL	3
.	.	16cc\	.
8c/J	.	16dd\	.
.	.	16ee\JJ	.
*Xtremolo	*	*	*
*clefF4	*	*	*
=5	=5	=5	=5
16F\LL	.	8ff\	.
16c\	.	.	.
16A\	.	4f/	.
16c\JJ	.	.	.
*rep	*	*	*
16F\LL	.	.	.
16c\	.	.	.
16A\	.	8f/	.
16c\JJ	.	.	.
*Xrep	*	*	*
*rep	*	*	*
16F\LL	.	8a\L	.
16c\	.	.	.
16A\	.	8cc\J	.
16c\JJ	.	.	.
*Xrep	*	*	*
=6	=6	=6	=6
16E\LL	.	16cc\LL	.
16c\	.	16b-\	.
16G\	.	16a\	.
16c\JJ	.	16b-\JJ	.
*rep	*	*	*
16E\LL	.	4.gg 4.b-\	.
16c\	.	.	.
16G\	.	.	.
16c\JJ	.	.	.
*Xrep	*	*	*
*rep	*	*	*
16E\LL	.	.	.
16c\	.	.	.
16G\	.	8b-\	.
16c\JJ	.	.	.
*Xrep	*	*	*
=7	=7	=7	=7
16F\LL	.	16a\LL	.
16c\	.	16cc\J	.
16A\	.	8cc\J	.
16c\JJ	.	.	.
*rep	*	*	*
16F\LL	.	8ff\L	.
16c\	.	.	.
16A\	.	8aa\	.
16c\JJ	.	.	.
*Xrep	*	*	*
*rep	*	*	*
16F\LL	.	8ccc\	.
16c\	.	.	.
16A\	.	8aa\J	.
16c\JJ	.	.	.
*Xrep	*	*	*
=8	=8	=8	=8
16E\LL	.	16aa\LL	.
16c\	.	16bb-\J	.
16G\	.	8bb-\J	.
16c\JJ	.	.	.
*rep	*	*	*
16E\LL	.	8gg\L	.
16c\	.	.	.
16G\	.	8ee\	.
16c\JJ	.	.	.
*Xrep	*	*	*
*rep	*	*	*
16E\LL	.	8cc\	.
16c\	.	.	.
16G\	.	8b-\J	.
16c\JJ	.	.	.
*Xrep	*	*	*
=9	=9	=9	=9
*2\right	*	*	*
*tremolo	*	*	*
8AL 8F\	.	16a\LL	.
.	.	16cc\J	.
8A 8F\	.	8cc\J	.
8A 8F\	.	8ff\L	.
8A 8F\	.	8ee\	.
8A 8F\	.	8ee-X\	.
8AJ 8F\	.	8cc\J	.
=10	=10	=10	=10
8B-L 8F\	.	16ee-X\LL	.
.	.	16dd\	.
8B- 8F\	.	16cc#X\	.
.	.	16dd\JJ	.
8B- 8F\	.	4.bb-\	.
*Xtremolo	*	*	*
8B-J 8F\	.	.	.
8B-L 8F\	.	.	.
8AJ 8F\	.	8aa\	.
!!LO:LB:g=original
=11	=11	=11	=11
8B-L 8G\	.	16ff#X\LL	.
.	.	16gg\J	.
8B-J 8G\	.	8gg\J	.
8B-L 8G\	.	4.ddd\	.
8G\	.	.	.
8A\	.	.	.
8B-\J	.	16ccc\LL	.
.	.	16ddd\JJ	.
=12	=12	=12	=12
.	.	8qccc/	.
4c\	.	16bb-\LL	.
.	.	16aa\	.
.	.	16bb-\	.
.	.	16gg\JJ	.
8r	.	4gg\	.
8C/	.	.	.
!	!	!LO:N:vis=8	!
4F\	.	4ff\	.
=13:|!|:	=13:|!|:	=13:|!|:	=13:|!|:
*clefG2	*	*	*
8aL 8f/	.	4aa 4ff 4cc\	.
8c/J	.	.	.
*rep	*	*	*
8aL 8f/	.	16r	.
.	.	16cc\LL	.
8c/J	.	16dd\	.
.	.	16ee\JJ	.
*Xrep	*	*	*
*rep	*	*	*
8aL 8f/	.	16ff\LL	.
.	.	16gg\	.
8c/J	.	16aa\	.
.	.	16bbn\JJ	.
*Xrep	*	*	*
=14	=14	=14	=14
8gL 8e/	.	16bbn\LL	.
.	.	16ccc\	.
8c/J	.	16ddd\	.
.	.	16ccc\JJ	.
*rep	*	*	*
8gL 8e/	.	16bb\LL	.
.	.	16ccc\	.
8c/J	.	16ddd\	.
.	.	16ccc\JJ	.
*Xrep	*	*	*
*rep	*	*	*
8gL 8e/	.	4ryy	.
8c/J	.	.	.
*Xrep	*	*	*
=15	=15	=15	=15
*tremolo	*	*	*
8fL 8d 8G/	.	16ccc\LL	.
.	.	16bbn\J	.
8f 8d 8G/	.	8bb\J	.
8f 8d 8G/	.	8fff\L	.
8f 8d 8G/	.	8bb\	.
8f 8d 8G/	.	8ddd\	.
8fJ 8d 8G/	.	8bb\J	.
=16	=16	=16	=16
8eL 8c 8G/	.	16ddd\LL	.
.	.	16ccc\J	.
8e 8c 8G/	.	8ccc\J	.
8e 8c 8G/	.	8eee\L	.
8e 8c 8G/	.	8ccc\	.
!	!	!LO:N:vis=8.	!
8e 8c 8G/	.	8gg\	.
8eJ 8c 8G/	.	8ee\J	.
=17	=17	=17	=17
!	!	!LO:TX:a:t=P:problem=skreślone 3 ćwierćnuty	!
8fL 8d 8G/	.	8ff\L	.
8f 8d 8G/	.	8ff\J	.
8f 8d 8G/	.	16fff\LL	.
.	.	16eee\	.
8f 8d 8G/	.	16ddd\	.
.	.	16ccc\JJ	.
!	!	!LO:SIC:s=16bbn	!
8f 8d 8G/	.	16bb-\LL	.
.	.	16ccc\	.
8fJ 8d 8G/	.	16ddd\	.
.	.	16fff\JJ	.
*Xtremolo	*	*	*
*clefF4	*	*	*
=18	=18	=18	=18
8c\L	.	16eee\LL	.
.	.	16ccc\	.
8G\J	.	16bbn\	.
.	.	16ccc\JJ	.
4C/	.	8ccc\L	.
.	.	8bbn\	.
4r	.	8bb-X\	.
.	.	8gg\J	.
!	!	!LO:TX:a:t=P:problem=komentarz między pięcioliniami za kreską	!
!	!	!LO:TX:b:i:t=Da Capo	!
!!LO:LB:g=original
=19:|!	=19:|!	=19:|!	=19:|!
*k[b-]	*	*k[b-]	*
*M3/4	*	*M3/4	*
!	!	!LO:TX:a:i:t=Trio	!
!	!	!LO:TX:a:t=P:problem=Trio przed akoladą na wysokości górnej pięciolinii	!
!	!	!LO:TX:a:t=P:problem=metrum z kreską ułamkową, pomiędzy pięcioliniami	!
8F\L	.	8fffL 8ddd\	.
8f\J	.	8eee 8ccc\	.
*rep	*	*	*
8F\L	.	8ddd 8bb-\	.
8f\J	.	8ccc 8aa\	.
*Xrep	*	*	*
*rep	*	*	*
8F\L	.	8bb- 8gg\	.
8f\J	.	8aaJ 8ff\	.
*Xrep	*	*	*
=20	=20	=20	=20
4.f 4.F\	.	8.cccL 8.aa\	.
.	.	16bb-Jk 16gg\	.
.	.	4aa 4ff\	.
8eL 8E\	.	.	.
8f 8F\	.	4r	.
8c#XJ 8C#X\	.	.	.
=21	=21	=21	=21
4.d 4.D\	.	8.aaL 8.ff\	.
.	.	16ggJk 16ee\	.
.	.	4ff 4dd\	.
!LO:TX:a:t=P:problem=przekreślone kasowniki	!	!	!
8c#XL 8C#X\	.	.	.
!LO:TX:a:t=d	!	!	!
8d 8D\	.	4r	.
!LO:TX:a:t=a	!	!	!
8AJ 8AA\	.	.	.
=22	=22	=22	=22
4.B- 4.BB-\	.	8.ggL 8.b-\	.
.	.	16ffJk 16a\	.
.	.	4ee 4g\	.
8cnXL 8CnX\	.	.	.
8e 8E\	.	4r	.
8cJ 8C\	.	.	.
=23	=23	=23	=23
8fL 8F\	.	8ffL 8a\	.
8c\	.	8cc\	.
8f 8F\	.	8ff 8a\	.
8c\J	.	8cc\J	.
4f 4F\	.	4ff 4a\	.
=24:|!|:	=24:|!|:	=24:|!|:	=24:|!|:
*clefG2	*	*	*
8b-L 8g/	.	16gg\LL	.
.	.	16bb-\	.
8c/J	.	16aa\	.
.	.	16bb-\JJ	.
*rep	*	*	*
8b-L 8g/	.	16ccc\LL	.
.	.	16bb-\	.
8c/J	.	16aa\	.
.	.	16bb-\JJ	.
*Xrep	*	*	*
*rep	*	*	*
8b-L 8g/	.	8.eee\L	.
8c/J	.	.	.
.	.	16bb-\Jk	.
*Xrep	*	*	*
=25	=25	=25	=25
8aL 8f/	.	16aa\LL	.
.	.	16ccc\J	.
8c/J	.	8ccc\J	.
*rep	*	*	*
8aL 8f/	.	8fff\L	.
8c/J	.	8ccc\	.
*Xrep	*	*	*
*rep	*	*	*
8aL 8f/	.	8bb-X\	.
8c/J	.	8aa\J	.
*Xrep	*	*	*
=26	=26	=26	=26
8dL 8B-/	.	16ff#X\LL	.
.	.	16gg\J	.
8g/J	.	8gg\J	.
*rep	*	*	*
8dL 8B-/	.	8ddd\L	.
8g/J	.	8dd\J	.
*Xrep	*	*	*
8dL 8Bn/	.	8gg\L	.
8g/J	.	8ffn\J	.
=27	=27	=27	=27
8c/L	.	16ff\LL	.
.	.	16ee\	.
8e/J	.	16dd\	.
.	.	16cc\JJ	.
8g/L	.	16bn\LL	.
.	.	16cc\	.
!	!	!LO:TX:b:i:t=Trio da Capo	!
8e/J	.	16dd\	.
.	.	16cc\JJ	.
4c/	.	4cc\	.
=:|!	=:|!	=:|!	=:|!
*-	*-	*-	*-
!!!system-decoration: {(s1,s2)}
!!!RDF**kern: > = above
!!!RDF**kern: < = below
!!!EED: Mateusz Mrugas
!!!EEV: 2020-12-12
!!!ENC: Marcin Jachim
!!!END: 2020-06-18
!!!YEC: Copyright 2022 Narodowy Instytut Fryderyka Chopina (https://polishscores.org)
!!!YEM: License CC-BY-4.0 (https://creativecommons.org/licenses/by/4.0)
